icons/1_Primary/Privacy.svg

<svg width="1024" height="1024" viewBox="0 0 1024 1024" fill="none" xmlns="http://www.w3.org/2000/svg">
<g clip-path="url(#clip0_2_3210)">
<path d="M512 1024C794.77 1024 1024 794.77 1024 512C1024 229.23 794.77 0 512 0C229.23 0 0 229.23 0 512C0 794.77 229.23 1024 512 1024Z" fill="#56595B"/>
<path d="M848.299 427.9V596.1H175.699V427.9H848.299ZM678.499 468.3C672.699 468.3 667.199 469.2 661.899 471C656.699 472.8 651.799 475.5 647.499 479C643.199 482.5 639.799 487.2 637.099 493.1C634.499 499 633.199 505.6 633.199 513C633.199 520.1 634.499 526.4 637.099 532C639.699 537.6 643.199 542.1 647.599 545.5C651.999 548.9 656.899 551.5 662.099 553.2C667.399 555 672.899 555.8 678.699 555.8C687.499 555.8 695.699 554 703.099 550.4V532.7C697.999 537.4 690.699 539.7 681.399 539.7C677.599 539.7 673.999 539.2 670.499 538.1C667.099 537.1 663.899 535.4 660.999 533.3C658.099 531.2 655.899 528.4 654.199 524.9C652.499 521.4 651.699 517.4 651.699 512.9C651.699 503.4 654.599 496.3 660.399 491.4C666.199 486.5 673.199 484.1 681.399 484.1C689.699 484.1 696.799 486.3 702.499 490.7V473.5C695.299 470.1 687.299 468.3 678.499 468.3ZM266.299 470H234.499V554.3H252.599V526.6H266.299C290.499 526.6 302.699 517.2 302.699 498.3C302.699 479.4 290.499 470 266.299 470ZM357.799 470H323.099V554.3H341.199V524.8H354.399L377.199 554.3H397.999L372.799 522.5C385.099 518.6 391.199 510.2 391.199 497.5C391.199 492.4 390.299 488 388.399 484.3C386.499 480.6 383.899 477.8 380.599 475.8C377.299 473.8 373.699 472.3 369.999 471.5C366.299 470.4 362.199 470 357.799 470ZM434.699 470H416.599V554.3H434.699V470ZM474.099 470H454.599L487.299 554.3H505.799L538.699 470H519.199L496.599 533.1L474.099 470ZM591.299 470H571.799L537.399 554.3H555.999L562.299 538.5H600.799L606.899 554.3H625.599L591.299 470ZM736.299 470H715.999L748.999 524.4V554.3H766.899V524.4L799.799 470H779.499L757.899 507.8L736.299 470ZM581.499 486.7C581.899 488.9 582.499 491.1 583.299 493.3L595.099 523.5H567.899L579.599 493.3C580.399 491.4 580.999 489.2 581.499 486.7ZM267.199 485.9C278.599 485.9 284.299 490 284.299 498.3C284.299 506.6 278.599 510.7 267.199 510.7H252.599V485.9H267.199ZM358.699 485.9C362.899 485.9 366.299 486.9 368.899 488.8C371.499 490.7 372.899 493.7 372.899 497.8C372.899 501.8 371.599 504.8 368.899 506.8C366.199 508.8 362.799 509.8 358.699 509.8H341.199V486H358.699V485.9Z" fill="white"/>
</g>
<defs>
<clipPath id="clip0_2_3210">
<rect width="1024" height="1024" fill="white"/>
</clipPath>
</defs>
</svg>

<svg xmlns="http://www.w3.org/2000/svg" width="1024" height="1024" fill="none">
   <g clip-path="url(#a)">
      <path fill="#56595B" d="M512 1024c282.77 0 512-229.23 512-512S794.77 0 512 0 0 229.23 0 512s229.23 512 512 512Z"/>
      <path fill="#fff" d="M848.299 427.9v168.2h-672.6V427.9h672.6Zm-169.8 40.4c-5.8 0-11.3.9-16.6 2.7-5.2 1.8-10.1 4.5-14.4 8-4.3 3.5-7.7 8.2-10.4 14.1-2.6 5.9-3.9 12.5-3.9 19.9 0 7.1 1.3 13.4 3.9 19 2.6 5.6 6.1 10.1 10.5 13.5 4.4 3.4 9.3 6 14.5 7.7 5.3 1.8 10.8 2.6 16.6 2.6 8.8 0 17-1.8 24.4-5.4v-17.7c-5.1 4.7-12.4 7-21.7 7-3.8 0-7.4-.5-10.9-1.6-3.4-1-6.6-2.7-9.5-4.8-2.9-2.1-5.1-4.9-6.8-8.4-1.7-3.5-2.5-7.5-2.5-12 0-9.5 2.9-16.6 8.7-21.5 5.8-4.9 12.8-7.3 21-7.3 8.3 0 15.4 2.2 21.1 6.6v-17.2c-7.2-3.4-15.2-5.2-24-5.2Zm-412.2 1.7h-31.8v84.3h18.1v-27.7h13.7c24.2 0 36.4-9.4 36.4-28.3s-12.2-28.3-36.4-28.3Zm91.5 0h-34.7v84.3h18.1v-29.5h13.2l22.8 29.5h20.8l-25.2-31.8c12.3-3.9 18.4-12.3 18.4-25 0-5.1-.9-9.5-2.8-13.2-1.9-3.7-4.5-6.5-7.8-8.5s-6.9-3.5-10.6-4.3c-3.7-1.1-7.8-1.5-12.2-1.5Zm76.9 0h-18.1v84.3h18.1V470Zm39.4 0h-19.5l32.7 84.3h18.5l32.9-84.3h-19.5l-22.6 63.1-22.5-63.1Zm117.2 0h-19.5l-34.4 84.3h18.6l6.3-15.8h38.5l6.1 15.8h18.7l-34.3-84.3Zm145 0h-20.3l33 54.4v29.9h17.9v-29.9l32.9-54.4h-20.3l-21.6 37.8-21.6-37.8Zm-154.8 16.7c.4 2.2 1 4.4 1.8 6.6l11.8 30.2h-27.2l11.7-30.2c.8-1.9 1.4-4.1 1.9-6.6Zm-314.3-.8c11.4 0 17.1 4.1 17.1 12.4s-5.7 12.4-17.1 12.4h-14.6v-24.8h14.6Zm91.5 0c4.2 0 7.6 1 10.2 2.9 2.6 1.9 4 4.9 4 9 0 4-1.3 7-4 9s-6.1 3-10.2 3h-17.5V486h17.5v-.1Z"/>
   </g>
   <defs>
      <clipPath id="a">
         <path fill="#fff" d="M0 0h1024v1024H0z"/>
      </clipPath>
   </defs>
</svg>
